icons/tubarao.svg

<svg xmlns="http://www.w3.org/2000/svg" viewBox="0 0 350 350"><path d="M45 45h260v260H45z" opacity=".4"/><path fill="#3a6e75" d="M73 73h204v204H73z"/><g fill="#fff"><path d="M99 277c6-8 12-14 20-20l-16 6 6-9c-5 3-21 11-16 5 4-5 2-12 1-17-1-4 10-25 20-5h3c6-6 9 5 7 13 19-3 19-21 27-22 1 19 8 20 33-3-2 6-1 9-7 18 2-1 4-2 7-1 7-3 7 0 7 5-7 0-3 5-11 5-3 0-5 2-8 5l4-12c-9 8-20 24-22 17-7-19-26 4-34 9l-1-5-15 11Z"/><path d="M123 277c20-24 25-15 19 0Zm70-11c16-26 22-11 17-5-7 9 0-12-17 5"/></g><path d="M73 257c28-18 47-60 45-97-7 2-16 3-22 2-11 23-33 20-35 1-11-6-13-30 2-40-2-19 11-46 31-49 8-17 43-30 80-15 40-19 111 43 115 92 8 3 12 17 8 25 8 19-2 46-9 58l-2-11c-9 22-12 29-26 54h-8c16-26 24-69 17-86-18 4-4 37-35 71l3-13c-6 0-12 17-21 28h-8c19-22 27-47 31-71-15-3-15 17-27 36-6 11-4-11-12 2-5 9-10 19-25 29 9-13 29-37 29-61-9-9-11 28-41 47 7-9 16-21 21-34-11 13-14-9-12-24-6-2-14 36-73 76h-7c35-25 63-74 60-90-6 10-12 19-19 27 20-43 9-56 5-50-14 21-25 81-65 97Z"/><g fill="#fff"><path d="M89 161c-10 22-25 8-24-4-11-10-4-28 3-29 0-23 13-42 28-47 0 12 12 20 23 19-42-23 16-54 54-32 54-11 94 37 106 67-6-3-9-3-14 0-2-7-10-11-17-11-15-12-36-8-47-2 12 14-6 25-14 6-9 11 0 16 9 19-15 12-33-3-29-14-37-5-15-45 36-34 23-5 34 2 42 9 1-11-16-18-41-16-48-10-69 10-74 17-8 1-9 8-8 11 2 4-9 5-15-3-1 11 14 19 26 11 5 4 5 30-21 18-1 3 0 5 3 8-15 0-36-15-30-33-2-7-1-14 2-20-9 5-9 14-7 20-9 17 4 29 9 31s-2 8-13 4c0 5 7 6 13 5"/><path d="M221 153c-23-22 32-35 42-10 15-9 23 6 21 14 5 2 6 9 5 13 3 6 0 15-3 18-3-21-18-31-23-31s-11 9-16 9c-6 0-8-9-15-9-6 0-6 4-5 5 4 4 1 5-3 5s-12-8-3-14"/></g></svg>

<svg
  xmlns="http://www.w3.org/2000/svg"
  width="350"
  height="350"
  viewBox="0 0 350 350"
>
  <rect x="45" y="45" width="260" height="260" opacity="0.4" />
  <path fill="#3a6e75" d="M73 73h204v204H73z" />
  <g fill="#ffffff">
    <path
      d="M99 277C105 269 111 263 119 257L103 263 109 254C104 257 88 265 93 259 97 254 95 247 94 242 93 238 104 217 114 237H117C123 231 126 242 124 250 143 247 143 229 151 228 152 247 159 248 184 225 182 231 183 234 177 243 179 242 181 241 184 242 191 239 191 242 191 247 184 247 188 252 180 252 177 252 175 254 172 257L176 245C167 253 156 269 154 262 147 243 128 266 120 271L119 266 104 277Z"
    />
    <path d="M123 277C143 253 148 262 142 277Z" />
    <path d="M193 266C209 240 215 255 210 261 203 270 210 249 193 266Z" />
  </g>
  <path
    fill="#000000"
    d="M73 257C101 239 120 197 118 160 111 162 102 163 96 162 85 185 63 182 61 163 50 157 48 133 63 123 61 104 74 77 94 74 102 57 137 44 174 59 214 40 285 102 289 151 297 154 301 168 297 176 305 195 295 222 288 234L286 223C277 245 274 252 260 277H252C268 251 276 208 269 191 251 195 265 228 234 262L237 249C231 249 225 266 216 277H208C227 255 235 230 239 206 224 203 224 223 212 242 206 253 208 231 200 244 195 253 190 263 175 273 184 260 204 236 204 212 195 203 193 240 163 259 170 250 179 238 184 225 173 238 170 216 172 201 166 199 158 237 99 277H92C127 252 155 203 152 187 146 197 140 206 133 214 153 171 142 158 138 164 124 185 113 245 73 261Z"
  />
  <g fill="#ffffff">
    <path
      d="M89 161C79 183 64 169 65 157 54 147 61 129 68 128 68 105 81 86 96 81 96 93 108 101 119 100 77 77 135 46 173 68 227 57 267 105 279 135 273 132 270 132 265 135 263 128 255 124 248 124 233 112 212 116 201 122 213 136 195 147 187 128 178 139 187 144 196 147 181 159 163 144 167 133 130 128 152 88 203 99 226 94 237 101 245 108 246 97 229 90 204 92 156 82 135 102 130 109 122 110 121 117 122 120 124 124 113 125 107 117 106 128 121 136 133 128 138 132 138 158 112 146 111 149 112 151 115 154 100 154 79 139 85 121 83 114 84 107 87 101 78 106 78 115 80 121 71 138 84 150 89 152 94 154 87 160 76 156 76 161 83 162 89 161Z"
    />
    <path
      d="M221 153C198 131 253 118 263 143 278 134 286 149 284 157 289 159 290 166 289 170 292 176 289 185 286 188 283 167 268 157 263 157 258 157 252 166 247 166 241 166 239 157 232 157 226 157 226 161 227 162 231 166 228 167 224 167 220 167 212 159 221 153Z"
    />
  </g>
</svg>
